epam-assets/icon-sources/18/action-mic.svg

<svg xmlns="http://www.w3.org/2000/svg" width="18" height="18" fill="none" viewBox="0 0 18 18">
  <path fill="#6C6F80" fill-rule="evenodd" d="M9 10.5a2.24 2.24 0 0 0 2.242-2.25l.008-4.5A2.247 2.247 0 0 0 9 1.5a2.247 2.247 0 0 0-2.25 2.25v4.5A2.247 2.247 0 0 0 9 10.5Zm3.975-2.25c0 2.25-1.905 3.825-3.975 3.825-2.07 0-3.975-1.575-3.975-3.825H3.75c0 2.557 2.04 4.672 4.5 5.04v2.46h1.5v-2.46c2.46-.36 4.5-2.475 4.5-5.04h-1.275Z" clip-rule="evenodd"/>
</svg>

<svg width="18" height="18" viewBox="0 0 18 18" fill="none" xmlns="http://www.w3.org/2000/svg">
<g id="18/action-mic">
<path id="icon" fill-rule="evenodd" clip-rule="evenodd" d="M9 10.5C10.245 10.5 11.2425 9.495 11.2425 8.25L11.25 3.75C11.25 2.505 10.245 1.5 9 1.5C7.755 1.5 6.75 2.505 6.75 3.75V8.25C6.75 9.495 7.755 10.5 9 10.5ZM12.975 8.25C12.975 10.5 11.07 12.075 9 12.075C6.93 12.075 5.025 10.5 5.025 8.25H3.75C3.75 10.8075 5.79 12.9225 8.25 13.29V15.75H9.75V13.29C12.21 12.93 14.25 10.815 14.25 8.25H12.975Z" fill="#6C6F80"/>
</g>
</svg>
